X:610
T:Sam Hide's Jig
M:6/8
L:1/8
Z:abc by Bruce Osborne - bosborne@kos.net
K:A
E|A2 A cAc|ece fga|fec BAB|cAF F2 E|!
A2 A cAc|ece fga|fec BAB|cAA A2:|!
|:A|cee dff|cee BAB|cde fga|agf fec|!
a2 a fec|BAB cAF|Edc BAB|cAA A2:|!
